dist/img/logoh.svg

<svg width="220" height="34" viewBox="0 0 220 34" fill="none" xmlns="http://www.w3.org/2000/svg">
<path d="M40.4302 33.1144H0V0.0587158H8.04871V25.0657H40.4302V33.1144Z" fill="#1D1D1B"/>
<path d="M84.8694 0.179688H44.4453V8.22839H84.8694V0.179688Z" fill="#1D1D1B"/>
<path d="M84.8694 12.6211H44.4453V20.6698H84.8694V12.6211Z" fill="#1D1D1B"/>
<path d="M84.8694 25.0664H44.4453V33.1151H84.8694V25.0664Z" fill="#1D1D1B"/>
<path d="M160.494 33.1083H148.05C144.233 33.1083 140.571 31.593 137.87 28.8953C135.169 26.1976 133.649 22.538 133.645 18.7205V0.0585938H141.693V18.7205C141.693 20.4033 142.362 22.0172 143.552 23.2071C144.742 24.3971 146.355 25.0656 148.038 25.0656H160.494C162.176 25.064 163.789 24.395 164.978 23.2054C166.168 22.0158 166.837 20.4028 166.839 18.7205V0.0585938H174.881V18.7205C174.877 22.5349 173.359 26.1917 170.662 28.8889C167.965 31.5861 164.308 33.1035 160.494 33.1083Z" fill="#1D1D1B"/>
<path d="M203.355 3.98975C202.662 2.77757 201.66 1.77019 200.452 1.06959C199.243 0.368977 197.871 0 196.475 0C195.078 0 193.706 0.368977 192.498 1.06959C191.289 1.77019 190.288 2.77757 189.594 3.98975L172.973 33.0723H182.243L196.475 8.16762L206.107 25.0235H196.366L191.707 33.0723H220.001L203.355 3.98975Z" fill="#1D1D1B"/>
<path d="M89.1484 25.0663H117.015C118.698 25.0663 120.312 24.3978 121.502 23.2078C122.691 22.0179 123.36 20.404 123.36 18.7212V14.5734C123.358 12.8911 122.689 11.2782 121.5 10.0886C120.31 8.899 118.697 8.22999 117.015 8.22839H89.1484V0.179688H117.015C120.831 0.184466 124.489 1.70248 127.188 4.4008C129.886 7.09912 131.404 10.7575 131.409 14.5734V18.7212C131.404 22.5367 129.886 26.1944 127.187 28.8917C124.489 31.5891 120.83 33.1058 117.015 33.109H89.1484V25.0663Z" fill="#1D1D1B"/>
<path d="M98.058 20.6903H89.1484V12.6055H98.058C99.1031 12.6458 100.092 13.0894 100.817 13.843C101.542 14.5967 101.947 15.602 101.947 16.6479C101.947 17.6938 101.542 18.699 100.817 19.4527C100.092 20.2064 99.1031 20.65 98.058 20.6903Z" fill="#FFDD00"/>
</svg>

<svg width="220" height="34" fill="none" xmlns="http://www.w3.org/2000/svg"><path d="M40.43 33.114H0V.06h8.049v25.007H40.43v8.048zM84.87.18H44.444v8.048H84.87V.18zm0 12.441H44.444v8.049H84.87v-8.05zm0 12.445H44.444v8.05H84.87v-8.05zm75.624 8.042H148.05a14.406 14.406 0 01-14.405-14.387V.059h8.048V18.72a6.345 6.345 0 006.345 6.345h12.456a6.349 6.349 0 006.345-6.345V.059h8.042V18.72a14.403 14.403 0 01-14.387 14.387zM203.355 3.99a7.922 7.922 0 00-6.88-3.99 7.927 7.927 0 00-6.881 3.99l-16.621 29.082h9.27l14.232-24.904 9.632 16.855h-9.741l-4.659 8.05h28.294L203.355 3.99zM89.148 25.066h27.867a6.345 6.345 0 006.345-6.345v-4.148a6.355 6.355 0 00-6.345-6.345H89.148V.18h27.867a14.414 14.414 0 0114.394 14.393v4.148a14.405 14.405 0 01-14.394 14.388H89.148v-8.043z" fill="#1D1D1B"/><path d="M98.058 20.69h-8.91v-8.085h8.91a4.045 4.045 0 010 8.085z" fill="#FD0"/></svg>
